X:1
T:Sleepers Awake
T:Sleepers Awake
T:Part 3
T:J.S.Bach
C:J.S.Bach
L:1/8
Q:1/4=50
M:4/4
K:C
V:1 tab stafflines=6 strings=E2,A2,D3,G3,B3,E4 nm="Guitar" snm="Guit."
V:1
 !6!E,,2 !6!E,,2 !6!E,,2 !6!^G,,2 | !5!A,,2 !5!B,,2 !6!E,,4 |: !6!E,,2 !6!E,,2 !6!E,,2 !6!^G,,2 | %3
 !5!A,,2 !5!B,,2 !6!E,,2 x2 | !6!^G,,2 !5!^C,2 !6!B,,2 !6!A,,2 | !6!^G,,2 !6!E,,2 !5!B,,2 !5!_E,2 | %6
 !4!E,2 !5!_E,2 !5!^C,2 !4!=E,2 | !4!^F,2 !4!^G,2 !3!_B,2 !4!F,2 | !2!B,2 !3!_B,2 !4!^G,2 !4!^F,2 | %9
 !4!E,2 !5!_E,2 !5!^C,2 !4!=E,2 | !5!_E,!5!B,,!4!^F,!6!^F,, !6!^G,,!6!_B,,!5!=B,,!5!E, | %11
 !4!E,!5!^C,!4!^F,!6!^F,, !5!B,,!5!C,!5!B,,!5!A,, | !6!^G,,!6!^F,,!4!E,!5!_E, !5!^C,2 !5!C,2 | %13
 !6!^G,,2 !5!B,,2 !6!E,,2 !6!G,,2 | !5!A,,2 !3!A,2 !5!_E,2 !4!=E,2 | %15
 !5!^C,2 !5!_E,2 !4!=E,2 !5!_E,2 | !5!^C,2 !6!^G,,2 !5!C,!5!_E, !4!=E,2- | %17
 !4!E,!5!_E,!6!^G,,!6!_B,, !5!=B,,!5!E,!4!=E,!4!^F, | %18
 !5!B,,!6!_B,,!5!=B,,!5!^C, !5!_E,!5!B,, !4!=E,2 | !5!B,,2 !5!A,,2 !6!^G,,2 !6!E,,2 |1 %20
 !5!A,,!5!B,, !5!^C,2 !6!^F,,2 !5!B,,!5!A,, | !6!^G,,2 !4!E,2 !5!_E,2 !4!=E,2 | %22
 !5!A,,2 !5!B,,2 !6!E,,2 x2 :|2 !5!A,,!5!B,, !5!^C,2 !6!^F,,2 !5!B,,!5!A,, || %24
 !6!^G,,2 !5!^C,2 !5!B,,2 !5!A,,2 | !6!^G,,2 !6!E,,2 !5!B,,2 !5!_E,2 | %26
 !4!E,2 !5!_E,2 !5!^C,2 !4!=E,2 | !4!^F,2 !4!^G,2 !3!_B,2 !4!F,2 | !2!B,2 !3!_B,2 !4!^G,2 !4!^F,2 | %29
 !4!E,2 !5!_E,2 !5!^C,2 !4!=E,2 | !5!_E,!5!B,,!4!^F,!6!^F,, !6!^G,,!6!_B,,!5!=B,,!5!E, | %31
 !4!E,!5!^C,!4!^F,!6!^F,, !5!B,,!5!C,!5!B,,!5!A,, | %32
 !6!^G,,!6!^F,,!6!E,,!5!_E, !4!=E,!6!G,,!5!A,,!5!B,, | !5!^C,!5!_E, !4!=E,2 !5!B,,2 !5!A,,2 | %34
 !6!^G,,2 !6!E,,2 !5!B,,!5!^C,!5!_E,!5!B,, | !4!E,!5!_E,!5!^C,!5!=C, !5!^C,!4!^G,!3!^C!2!B, | %36
 !3!A,2 !4!E,2 !4!^F,2 !4!^G,2 | !3!A,!4!^G,!4!^F,!4!=F, !4!^F,!4!E,!5!_E,!5!^C, | %38
 !5!C,!6!^G,,!4!^G,!4!^F, !4!E,2 !5!^C,2 | !4!^G,2 !3!C2 !3!^C2 !2!B,2 | %40
 !3!_B,2 !5!^C,2 !5!_E,2 !4!=E,2 | !3!G,2 !5!_E,2 !4!^G,2 !4!^F,2 | %42
 !4!E,2 !5!_E,2 !5!^C,2 !5!B,,2 | !6!_B,,2 !5!^C,2 !5!=B,,!6!^G,, !5!_E,2 | %44
 !6!^G,,!6!E,,!6!^F,,!6!G,, !5!A,,!6!G,,!5!A,,!5!B,, | !5!^C,!5!B,,!5!C,!5!_E, !4!=E,2 !5!C,2 | %46
 !5!A,,2 !5!B,,2 !5!^C,!5!B,,!5!C,!5!_E, | !4!E,!5!_E,!4!=E,!4!^F, !4!^G,!4!F,!4!G,!4!E, | %48
 !5!_E,!5!B,,!2!B,!3!A, !4!^G,2 !4!=E,2 | !2!B,!3!A, !4!^G,2 !3!A,2 !4!G,2 | %50
 !4!^F,2 !4!E,2 !4!F,2 !5!B,,2 | !5!^C,2 !5!A,,2 !5!B,,2 !4!^G,2 | %52
 [!4!E,!3!A,]!4!^G,!4!^F,!4!E, !5!_E,2 !4!F,2 | !5!B,,!5!^C,!5!B,,!5!A,, !6!^G,,!5!C,!5!A,,!5!B,, | %54
 !5!^C,!5!_E,!4!=E,!4!^G, !3!A,!4!^F,!2!B,!5!B,, | [!6!E,,!4!E,!3!^G,!2!B,]8 |] %56

